assets/icons/youtube.svg

<?xml version="1.0" encoding="UTF-8"?>
<svg width="15px" height="12px" viewBox="0 0 15 12" version="1.1" xmlns="http://www.w3.org/2000/svg" xmlns:xlink="http://www.w3.org/1999/xlink">
    <!-- Generator: Sketch 64 (93537) - https://sketch.com -->
    <title>youtube</title>
    <desc>Created with Sketch.</desc>
    <g id="Page-1" stroke="none" stroke-width="1" fill="none" fill-rule="evenodd">
        <g id="Daxil-ol---Qeydiyyat" transform="translate(-1296.000000, -864.000000)" fill="#FFFFFF" fill-rule="nonzero">
            <g id="BOTTOM" transform="translate(0.000000, 761.000000)">
                <g id="youtube" transform="translate(1296.000000, 103.000000)">
                    <path d="M9.80884553,5.00953676 L6.49497984,3.19633482 C6.30443572,3.09207917 6.079216,3.09597015 5.89244842,3.20663452 C5.70556641,3.31741333 5.59410094,3.51310729 5.59410094,3.73031616 L5.59410094,7.32559204 C5.59410094,7.54177093 5.70487975,7.73712158 5.89050293,7.84801482 C5.98743439,7.90592194 6.09489439,7.93498992 6.20258332,7.93498992 C6.30123138,7.93498992 6.40010833,7.91061401 6.49108887,7.8616333 L9.80506898,6.07967376 C10.0017929,5.97381592 10.124588,5.76930999 10.1255075,5.54580688 C10.1263046,5.32230378 10.0049972,5.11688232 9.80884553,5.00953676 L9.80884553,5.00953676 Z M6.47312165,6.87332153 L6.47312165,4.18624878 L8.94985198,5.54145814 L6.47312165,6.87332153 Z" id="Shape"></path>
                    <path d="M14.889679,2.68146516 L14.8889923,2.6745987 C14.8762894,2.55386353 14.7498322,1.47994995 14.2277527,0.933723457 C13.6243057,0.291252129 12.9401779,0.213203437 12.6111603,0.17578125 C12.5839233,0.172691338 12.5589752,0.169830322 12.5366592,0.166854844 L12.5104523,0.164108262 C10.5274201,0.0199127344 7.53261565,0.000228881836 7.50263215,0.000114440918 L7.5,0 L7.49736785,0.000114440918 C7.46738435,0.000228881836 4.47257994,0.0199127344 2.47169496,0.164108262 L2.4452591,0.166854844 C2.42397308,0.169715889 2.4005127,0.172348008 2.37499236,0.175323486 C2.04975129,0.212860107 1.37294769,0.291023262 0.767784111,0.956726074 C0.27053833,1.49711607 0.126800537,2.54802703 0.112037666,2.66613006 L0.110321045,2.68146516 C0.105857842,2.73170473 -1.66533454e-15,3.92772674 -1.66533454e-15,5.12844085 L-1.66533454e-15,6.25087737 C-1.66533454e-15,7.45159148 0.105857842,8.64761353 0.110321045,8.69796753 L0.111122139,8.70552064 C0.123825059,8.8243103 0.250167832,9.87854004 0.769844062,10.4249954 C1.33724212,11.0459518 2.05467223,11.1281204 2.44056703,11.1722946 C2.50156403,11.1792755 2.55409242,11.1852264 2.58991242,11.1915207 L2.62458803,11.1963272 C3.7695694,11.305275 7.35946655,11.3589478 7.51167299,11.3611221 L7.51625062,11.3612366 L7.52082826,11.3611221 C7.55081177,11.3610077 10.5455017,11.3413239 12.5285339,11.1971283 L12.5547409,11.1943817 C12.5798035,11.1910629 12.6079559,11.1880875 12.638855,11.1848831 C12.962265,11.1505508 13.6354065,11.0792542 14.2322159,10.4225921 C14.7294617,9.88208771 14.8733139,8.83117676 14.8879623,8.71318816 L14.889679,8.6978531 C14.8941422,8.64749909 15.0001144,7.45159148 15.0001144,6.25087737 L15.0001144,5.12844085 C15.0001144,3.92772674 14.8941422,2.73181916 14.889679,2.68146516 L14.889679,2.68146516 Z M14.1209793,6.25087737 C14.1209793,7.36221313 14.0239334,8.50673675 14.0147781,8.61179353 C13.9774704,8.9012146 13.8258362,9.56611635 13.5835648,9.82944489 C13.2100296,10.2404022 12.8263092,10.2811432 12.5461579,10.3107834 C12.5122833,10.3143311 12.4809265,10.3177643 12.4525452,10.3213119 C10.5345154,10.4600143 7.65277863,10.4813004 7.52002717,10.4821014 C7.37113951,10.4799271 3.83377075,10.4257965 2.72369385,10.3226852 C2.66681672,10.3134155 2.60536195,10.3063202 2.54058838,10.298996 C2.2120285,10.2613449 1.7622757,10.2098465 1.41643523,9.82944489 L1.40830992,9.82074738 C1.17027281,9.57275391 1.02298737,8.95099641 0.985565186,8.61522674 C0.978584297,8.53580476 0.879020684,7.3777771 0.879020684,6.25087737 L0.879020684,5.12844085 C0.879020684,4.01836395 0.975837715,2.87509919 0.985221855,2.76786803 C1.02973939,2.42694855 1.18423462,1.80233001 1.41643523,1.54987336 C1.80141448,1.12644196 2.20733643,1.07952117 2.4758148,1.04850768 C2.50144957,1.04553223 2.52536774,1.04278564 2.54745483,1.03992463 C4.4934082,0.900535576 7.39585875,0.879821777 7.5,0.879020684 C7.60414125,0.879707344 10.5055618,0.900535576 12.4342346,1.03992463 C12.4579239,1.04290008 12.4837875,1.04587556 12.5115967,1.0490799 C12.7877426,1.08055113 13.2051086,1.12815855 13.5881424,1.53671265 L13.5916901,1.54048919 C13.8297272,1.78848267 13.9770126,2.42111206 14.0144348,2.76363372 C14.0210724,2.83859253 14.1209793,3.99913787 14.1209793,5.12844085 L14.1209793,6.25087737 Z" id="Shape"></path>
                </g>
            </g>
        </g>
    </g>
</svg>

<svg width="15" height="12" xmlns="http://www.w3.org/2000/svg"><g fill="#FFF" fill-rule="nonzero"><path d="M9.809 5.01L6.495 3.196a.603.603 0 00-.603.01.603.603 0 00-.298.524v3.596c0 .216.11.411.297.522a.607.607 0 00.6.014L9.805 6.08a.609.609 0 00.004-1.07zM6.473 6.873V4.186L8.95 5.541 6.473 6.873z"/><path d="M14.89 2.681l-.001-.006c-.013-.121-.14-1.195-.661-1.741C13.624.29 12.94.214 12.61.176a3.968 3.968 0 01-.074-.01L12.51.165C10.527.02 7.533 0 7.503 0h-.006c-.03 0-3.024.02-5.025.164l-.027.003-.07.008C2.05.213 1.373.291.768.957c-.497.54-.641 1.591-.656 1.71L.11 2.68C.106 2.731 0 3.928 0 5.128v1.123c0 1.2.106 2.397.11 2.447l.001.008c.013.118.14 1.173.659 1.719.567.621 1.285.703 1.67.747.062.007.114.013.15.02l.035.004c1.145.11 4.734.163 4.887.165H7.52c.03 0 3.025-.02 5.008-.164l.026-.003a3.1 3.1 0 01.084-.01c.323-.033.996-.105 1.593-.761.497-.54.641-1.592.656-1.71l.002-.015c.004-.05.11-1.246.11-2.447V5.128c0-1.2-.106-2.396-.11-2.447zm-.769 3.57c0 1.111-.097 2.256-.106 2.36-.038.29-.19.955-.431 1.218-.374.411-.758.452-1.038.482a4.81 4.81 0 00-.093.01c-1.918.139-4.8.16-4.933.161-.149-.002-3.686-.056-4.796-.16a3.858 3.858 0 00-.183-.023c-.329-.038-.779-.09-1.125-.47l-.008-.008c-.238-.248-.385-.87-.422-1.206a30.717 30.717 0 01-.107-2.364V5.128c0-1.11.097-2.253.106-2.36.045-.341.2-.966.431-1.218.385-.424.791-.47 1.06-.501.025-.003.05-.006.071-.01C4.493.902 7.396.88 7.5.88c.104 0 3.006.022 4.934.16l.078.01c.276.032.693.08 1.076.488l.004.003c.238.248.385.881.422 1.224.007.075.107 1.235.107 2.364v1.123z"/></g></svg>
